**harm	**harte	**kern	**silbe	**kern	**silbe	**rhyme	**timestamp	**phrase	**leadinstrument
*M4/4	*M4/4	*ICvox	*	*ICvox	*	*	*	*	*
*	*	*VRlead*VRharmonize	*	*VRlead*VRharmonize	*	*	*	*	*
*	*	*Hstimme	*	*Nstimme	*	*	*	*	*
*B-:	*B-:	*B-:	*	*B-:	*	*	*	*	*
*	*	*M4/4	*	*M4/4	*	*	*	*	*
*	*	*clefG2	*	*clefG2	*	*	*	*	*
1r;	N	r;	.	r;	.	.	0	.	r
=1	=1	=1	=1	=1	=1	=1	=1	=1	=1
*>Letter>A	*>Letter>A	*>Letter>A	*>Letter>A	*>Letter>A	*>Letter>A	*>Letter>A	*>Letter>A	*>Letter>A	*>Letter>A
*>Label>Intro	*>Label>Intro	*>Label>Intro	*>Label>Intro	*>Label>Intro	*>Label>Intro	*>Label>Intro	*>Label>Intro	*>Label>Intro	*>Label>Intro
1I	B-:maj	1r	.	1r	.	.	0.325	newline	guitar
=2	=2	=2	=2	=2	=2	=2	=2	=2	=2
1I	B-:maj	1r	.	1r	.	.	3.546	.	guitar
=3	=3	=3	=3	=3	=3	=3	=3	=3	=3
*>Letter>B	*>Letter>B	*>Letter>B	*>Letter>B	*>Letter>B	*>Letter>B	*>Letter>B	*>Letter>B	*>Letter>B	*>Letter>B
*>Label>Verse	*>Label>Verse	*>Label>Verse	*>Label>Verse	*>Label>Verse	*>Label>Verse	*>Label>Verse	*>Label>Verse	*>Label>Verse	*>Label>Verse
1I	B-:maj	8d	Some-	1r	.	.	6.768	newline	voice
.	.	[8d	-times	.	.	.	.	.	.
.	.	16d]	_	.	.	.	.	.	.
.	.	16d	when	.	.	.	.	.	.
.	.	8d	I'm	.	.	.	.	.	.
.	.	8.f	down	.	.	.	.	.	.
.	.	16f	and	.	.	.	.	.	.
.	.	8d	all	.	.	.	.	.	.
.	.	16d	a-	.	.	.	.	.	.
.	.	[16d	-lone	.	.	A	.	.	.
=4	=4	=4	=4	=4	=4	=4	=4	=4	=4
1III7	D:7	2d]	_	1r	.	.	9.853	.	voice
.	.	8.r	.	.	.	.	.	.	.
.	.	16d	ooh	.	.	.	.	.	.
.	.	16c	_	.	.	.	.	.	.
.	.	[8.B-	_	.	.	.	.	.	.
=5	=5	=5	=5	=5	=5	=5	=5	=5	=5
1vi	G:min	8B-]	_	1r	.	.	12.938	.	voice
.	.	8B-	Just	.	.	.	.	.	.
.	.	8B-	like	.	.	.	.	.	.
.	.	16c	a	.	.	.	.	.	.
.	.	[16d	child	.	.	.	.	.	.
.	.	8.d]	_	.	.	.	.	.	.
.	.	16d	wit-	.	.	.	.	.	.
.	.	8B-	-hout	.	.	.	.	.	.
.	.	16B-	a	.	.	.	.	.	.
.	.	[16A-	home	.	.	A	.	.	.
=6	=6	=6	=6	=6	=6	=6	=6	=6	=6
1Im7	B-:7	4A-]	_	1r	.	.	16.023	.	voice
.	.	4r	.	.	.	.	.	.	.
.	.	4r	.	.	.	.	.	.	.
.	.	8.r	.	.	.	.	.	.	.
.	.	16F	The	.	.	.	.	.	.
=7	=7	=7	=7	=7	=7	=7	=7	=7	=7
1IV	E-:maj	8G	love	1r	.	.	19.108	newline	voice
.	.	16G	you	.	.	.	.	.	.
.	.	[16G	give	.	.	.	.	.	.
.	.	16G]	_	.	.	.	.	.	.
.	.	8A	me	.	.	.	.	.	.
.	.	[16B-	keeps	.	.	.	.	.	.
.	.	16B-]	_	.	.	.	.	.	.
.	.	[8.B-	me	.	.	.	.	.	.
.	.	16B-]	_	.	.	.	.	.	.
.	.	16B-	han-	.	.	.	.	.	.
.	.	16G	-gin'	.	.	.	.	.	.
.	.	[16F	on	.	.	.	.	.	.
=8	=8	=8	=8	=8	=8	=8	=8	=8	=8
2I	B-:maj	4F]	_	1r	.	.	22.177	.	voice
.	.	16r	.	.	.	.	.	.	.
.	.	8.F#	Awww	.	.	.	.	.	.
2vi	G:min	16G	ho-	.	.	.	23.711	.	voice
.	.	[8.B-	-ney	.	.	.	.	.	.
.	.	4B-]	_	.	.	.	.	.	.
=9	=9	=9	=9	=9	=9	=9	=9	=9	=9
1II7	C:7	4r	.	1r	.	.	25.245	.	voice
.	.	16B-	all	.	.	.	.	.	.
.	.	8.B-	I	.	.	.	.	.	.
.	.	16B-	e-	.	.	.	.	.	.
.	.	8B-	-ver	.	.	.	.	.	.
.	.	[16d	need	.	.	.	.	.	.
.	.	8d]	_	.	.	.	.	.	.
.	.	16B-	is	.	.	.	.	.	.
.	.	16d	you	.	.	.	.	.	.
=10	=10	=10	=10	=10	=10	=10	=10	=10	=10
2V7	F:7	4c	_	1r	.	.	28.313	.	voice
.	.	4r	.	.	.	.	.	.	.
4V	F:sus4(b7)	2r	.	.	.	.	29.847	.	voice
4V7	F:7	.	.	.	.	.	30.614	.	voice
=11	=11	=11	=11	=11	=11	=11	=11	=11	=11
1I	B-:maj	1r	.	4r	.	.	31.381	newline	voice
.	.	.	.	16d	You're	.	.	.	.
.	.	.	.	8d	my	.	.	.	.
.	.	.	.	8f	first	.	.	.	.
.	.	.	.	8f	love,	.	.	.	.
.	.	.	.	8f	you're	.	.	.	.
.	.	.	.	8f	my	.	.	.	.
.	.	.	.	[16d	last	B	.	.	.
=12	=12	=12	=12	=12	=12	=12	=12	=12	=12
1III7	D:7	1r	.	8d]	_	.	34.438	.	voice
.	.	.	.	4c	_	.	.	.	.
.	.	.	.	8r	.	.	.	.	.
.	.	.	.	2r	.	.	.	.	.
=13	=13	=13	=13	=13	=13	=13	=13	=13	=13
1vi	G:min	1r	.	8r	.	.	37.495	.	voice
.	.	.	.	[8B-	you're	.	.	.	.
.	.	.	.	16B-_	_	.	.	.	.
.	.	.	.	8B-]	my	.	.	.	.
.	.	.	.	[16d	fu-	.	.	.	.
.	.	.	.	16d]	_	.	.	.	.
.	.	.	.	8d	-ture	.	.	.	.
.	.	.	.	[16d	you're	.	.	.	.
.	.	.	.	16d]	_	.	.	.	.
.	.	.	.	8.d	my	.	.	.	.
=14	=14	=14	=14	=14	=14	=14	=14	=14	=14
1Im7	B-:7	1r	.	8A-	past	B	40.551	.	voice
.	.	.	.	4F	_	.	.	.	.
.	.	.	.	8r	.	.	.	.	.
.	.	.	.	2r	.	.	.	.	.
=15	=15	=15	=15	=15	=15	=15	=15	=15	=15
1IV	E-:maj	1r	.	8r	.	.	43.608	newline	voice
.	.	.	.	8G	And	.	.	.	.
.	.	.	.	16G	lo-	.	.	.	.
.	.	.	.	8.A	-ving	.	.	.	.
.	.	.	.	8.B-	you	.	.	.	.
.	.	.	.	16A	is	.	.	.	.
.	.	.	.	16B-	all	.	.	.	.
.	.	.	.	8.G	I	.	.	.	.
=16	=16	=16	=16	=16	=16	=16	=16	=16	=16
2I	B-:maj	1r	.	8F	ask	B	46.638	.	voice
.	.	.	.	8r	.	.	.	.	.
.	.	.	.	8.r	.	.	.	.	.
.	.	.	.	[16G	Ho-	.	.	.	.
2vi	G:min	.	.	16G]	_	.	48.154	.	voice
.	.	.	.	8.B-	-ney	.	.	.	.
.	.	.	.	4r	.	.	.	.	.
=17	=17	=17	=17	=17	=17	=17	=17	=17	=17
2II7	C:7	1r	.	4r	.	.	49.669	.	voice
.	.	.	.	16d-	all	.	.	.	.
.	.	.	.	8.d-	I	.	.	.	.
2V7	F:7	.	.	16c	e-	.	51.184	.	voice
.	.	.	.	8B-	-ver	.	.	.	.
.	.	.	.	[16d-	need	.	.	.	.
.	.	.	.	8.d-]	_	.	.	.	.
.	.	.	.	16B-	is	.	.	.	.
=18	=18	=18	=18	=18	=18	=18	=18	=18	=18
1I	B-:maj	1r	.	4B-	you	.	52.699	.	voice
.	.	.	.	4r	.	.	.	.	.
.	.	.	.	2r	.	.	.	.	.
=19	=19	=19	=19	=19	=19	=19	=19	=19	=19
*>Letter>C	*>Letter>C	*>Letter>C	*>Letter>C	*>Letter>C	*>Letter>C	*>Letter>C	*>Letter>C	*>Letter>C	*>Letter>C
*>Label>Bridge	*>Label>Bridge	*>Label>Bridge	*>Label>Bridge	*>Label>Bridge	*>Label>Bridge	*>Label>Bridge	*>Label>Bridge	*>Label>Bridge	*>Label>Bridge
1IV	E-:maj	4r	.	1r	.	.	55.73	newline	voice
.	.	16B-	Win-	.	.	.	.	.	.
.	.	8B-	-ters	.	.	.	.	.	.
.	.	[16B-	come	.	.	.	.	.	.
.	.	8.B-]	_	.	.	.	.	.	.
.	.	8G	and	.	.	.	.	.	.
.	.	8B-	they	.	.	.	.	.	.
.	.	[16c	go	.	.	A	.	.	.
=20	=20	=20	=20	=20	=20	=20	=20	=20	=20
1V	F:maj	4c]	_	1r	.	.	58.752	.	voice
.	.	4r	.	.	.	.	.	.	.
.	.	2r	.	.	.	.	.	.	.
=21	=21	=21	=21	=21	=21	=21	=21	=21	=21
1IV	E-:maj	4r	.	1r	.	.	61.774	.	voice
.	.	16B-	And	.	.	.	.	.	.
.	.	16B-	uh	.	.	.	.	.	.
.	.	16B-	we	.	.	.	.	.	.
.	.	[16B-	watch	.	.	.	.	.	.
.	.	8B-]	_	.	.	.	.	.	.
.	.	16B-	the	.	.	.	.	.	.
.	.	[16g	mel-	.	.	.	.	.	.
.	.	8.g]	_	.	.	.	.	.	.
.	.	[16d	-ting	.	.	.	.	.	.
=22	=22	=22	=22	=22	=22	=22	=22	=22	=22
1iii7	D:min7	16d]	_	1r	.	.	64.796	.	voice
.	.	16g	snow	.	.	A	.	.	.
.	.	[8f	_	.	.	.	.	.	.
.	.	4f_	_	.	.	.	.	.	.
.	.	4f]	_	.	.	.	.	.	.
.	.	4r	.	.	.	.	.	.	.
=23	=23	=23	=23	=23	=23	=23	=23	=23	=23
1IV	E-:maj	4r	.	1r	.	.	67.818	newline	voice
.	.	16g	Sure	.	.	.	.	.	.
.	.	8.g	as	.	.	.	.	.	.
.	.	16g	sum-	.	.	.	.	.	.
.	.	8g	-mer	.	.	.	.	.	.
.	.	[16a	fol-	.	.	.	.	.	.
.	.	16a]	_	.	.	.	.	.	.
.	.	8.g	-lows	.	.	A	.	.	.
=24	=24	=24	=24	=24	=24	=24	=24	=24	=24
4I	B-:maj	8.f	spring	1r	.	C	71.691	.	voice
.	.	[16d	All	.	.	.	.	.	.
4Vb	F:maj/3	8d]	_	.	.	.	72.66	.	voice
.	.	16f	the	.	.	.	.	.	.
.	.	[16d	things	.	.	C	.	.	.
4vi	G:min	16d]	_	.	.	.	73.628	.	voice
.	.	8c	you	.	.	.	.	.	.
.	.	[16B-	do	.	.	.	.	.	.
4V	F:maj	4B-]	_	.	.	.	74.596	.	voice
=25	=25	=25	=25	=25	=25	=25	=25	=25	=25
4IV	E-:maj	8r	.	1r	.	.	75.565	.	voice
.	.	8B-	Give	.	.	.	.	.	.
4IVd	E-:maj/7	16B-	me	.	.	.	76.533	.	voice
.	.	8B-	a	.	.	.	.	.	.
.	.	[16b-	re-	.	.	.	.	.	.
2ii	C:sus4(b7)	16b-]	_	.	.	.	77.502	.	voice
.	.	8b-	-ason	.	.	.	.	.	.
.	.	16b-	to	.	.	.	.	.	.
.	.	8b-	built	.	.	.	.	.	.
.	.	8b-	my	.	.	.	.	.	.
=26	=26	=26	=26	=26	=26	=26	=26	=26	=26
1V	F:maj	8.b-	world	1r	.	.	79.438	.	voice
.	.	[16f	a-	.	.	.	.	.	.
.	.	4f]	_	.	.	.	.	.	.
.	.	4B-	-round	.	.	.	.	.	.
.	.	16d	you	.	.	.	.	.	.
.	.	16B-	_	.	.	.	.	.	.
.	.	8c	_	.	.	.	.	.	.
=27	=27	=27	=27	=27	=27	=27	=27	=27	=27
*>Letter>B	*>Letter>B	*>Letter>B	*>Letter>B	*>Letter>B	*>Letter>B	*>Letter>B	*>Letter>B	*>Letter>B	*>Letter>B
*>Label>Verse	*>Label>Verse	*>Label>Verse	*>Label>Verse	*>Label>Verse	*>Label>Verse	*>Label>Verse	*>Label>Verse	*>Label>Verse	*>Label>Verse
1I	B-:maj	8d	Some-	8B-	Some-	.	83.312	newline	voice
.	.	8d	-men	8B-	-men	.	.	.	.
.	.	16d	fo-	16B-	fo-	.	.	.	.
.	.	8d	-llow	8B-	-llow	.	.	.	.
.	.	[16f	rain-	[16d	rain-	.	.	.	.
.	.	8f]	_	8d]	_	.	.	.	.
.	.	8f	-bows	8d	-bows	.	.	.	.
.	.	16f	I	16d	I	.	.	.	.
.	.	8d	am	8B-	am	.	.	.	.
.	.	[16d	told	[16A	told	A	.	.	.
=28	=28	=28	=28	=28	=28	=28	=28	=28	=28
1III7	D:7	4d]	_	4A]	_	.	86.355	.	voice
.	.	4r	.	4r	.	.	.	.	.
.	.	2r	.	2r	.	.	.	.	.
=29	=29	=29	=29	=29	=29	=29	=29	=29	=29
1vi	G:min	8B-	Some	8G	Some	.	89.397	.	voice
.	.	8B-	men	8G	men	.	.	.	.
.	.	8B-	search	8G	search	.	.	.	.
.	.	8c	for	8A	for	.	.	.	.
.	.	8d	sil-	8B-	sil-	.	.	.	.
.	.	16d	-ver,	16B-	-ver,	.	.	.	.
.	.	[16d	some	[16B-	some	.	.	.	.
.	.	8d]	_	8B-]	_	.	.	.	.
.	.	16B-	for	16G	for	.	.	.	.
.	.	[16A-	gold	[16F	gold	A	.	.	.
=30	=30	=30	=30	=30	=30	=30	=30	=30	=30
1Im7	B-:7	4A-]	_	4F]	_	.	92.44	.	voice
.	.	4r	.	4r	.	.	.	.	.
.	.	2r	.	2r	.	.	.	.	.
=31	=31	=31	=31	=31	=31	=31	=31	=31	=31
1IV	E-:maj	1r	.	8G	I	.	95.483	newline	voice
.	.	.	.	8G	have	.	.	.	.
.	.	.	.	8G	found	.	.	.	.
.	.	.	.	8A	my	.	.	.	.
.	.	.	.	16B-	trea-	.	.	.	.
.	.	.	.	8B-	-sure	.	.	.	.
.	.	.	.	[16B-	In	.	.	.	.
.	.	.	.	8B-]	_	.	.	.	.
.	.	.	.	8G	your	.	.	.	.
=32	=32	=32	=32	=32	=32	=32	=32	=32	=32
2I	B-:maj	1r	.	8F	soul,	A	98.496	.	voice
.	.	.	.	8r	.	.	.	.	.
.	.	.	.	4r	.	.	.	.	.
2vi	G:min	.	.	16G	ho-	.	100.002	.	voice
.	.	.	.	8.B-	-ney	.	.	.	.
.	.	.	.	4r	.	.	.	.	.
=33	=33	=33	=33	=33	=33	=33	=33	=33	=33
1II7	C:7	1r	.	4r	.	.	101.508	.	voice
.	.	.	.	16d	all	.	.	.	.
.	.	.	.	8.d	I	.	.	.	.
.	.	.	.	16c	e-	.	.	.	.
.	.	.	.	8B-	-ver	.	.	.	.
.	.	.	.	16d-	need	.	.	.	.
.	.	.	.	8c	_	.	.	.	.
.	.	.	.	8B-	_	.	.	.	.
=34	=34	=34	=34	=34	=34	=34	=34	=34	=34
2V7	F:7	1r	.	4c	you	.	104.521	.	voice
.	.	.	.	4r	.	.	.	.	.
4V	F:sus4(b7)	.	.	2r	.	.	106.028	.	voice
4V7	F:7	.	.	.	.	.	106.781	.	voice
=35	=35	=35	=35	=35	=35	=35	=35	=35	=35
1I	B-:maj	16d	With-	16B-	With-	.	107.534	newline	voice
.	.	8d	-out	8B-	-out	.	.	.	.
.	.	[16d	love	[16B-	love	.	.	.	.
.	.	16d]	_	16B-]	_	.	.	.	.
.	.	8.d	I'd	8.B-	I'd	.	.	.	.
.	.	16f	ne-	16B-	ne-	.	.	.	.
.	.	8f	-ver	8B-	-ver	.	.	.	.
.	.	[16f	find	[16B-	find	.	.	.	.
.	.	8f]	_	8B-]	_	.	.	.	.
.	.	16e-	the	16B-	the	.	.	.	.
.	.	[16d	way	[16A	way	D	.	.	.
=36	=36	=36	=36	=36	=36	=36	=36	=36	=36
1III7	D:7	4d]	_	4A]	_	.	110.565	.	voice
.	.	4r	.	4r	.	.	.	.	.
.	.	4r	.	4r	.	.	.	.	.
.	.	8r	.	8r	.	.	.	.	.
.	.	8B-	Through	8G	Through	.	.	.	.
=37	=37	=37	=37	=37	=37	=37	=37	=37	=37
1vi	G:min	8B-	ups	8G	ups	.	113.596	.	voice
.	.	8B-	and	8G	and	.	.	.	.
.	.	8B-	downs	8G	downs	.	.	.	.
.	.	16c	of	16G	of	.	.	.	.
.	.	[16d	e-	[16G	e-	.	.	.	.
.	.	16d]	_	16G]	_	.	.	.	.
.	.	8d	-v'ry	8G	-v'ry	.	.	.	.
.	.	[16d	sing-	[16G	sing-	.	.	.	.
.	.	16d]	_	16G]	_	.	.	.	.
.	.	8B-	-le	8G	-le	.	.	.	.
.	.	[16A-	day	[16F	day	D	.	.	.
=38	=38	=38	=38	=38	=38	=38	=38	=38	=38
1Im7	B-:7	8A-]	_	8F]	_	.	116.627	.	voice
.	.	8r	.	8r	.	.	.	.	.
.	.	4r	.	4r	.	.	.	.	.
.	.	2r	.	2r	.	.	.	.	.
=39	=39	=39	=39	=39	=39	=39	=39	=39	=39
1IV	E-:maj	8G	I	1r	.	.	119.657	newline	voice
.	.	8G	won't	.	.	.	.	.	.
.	.	16G	sleep	.	.	.	.	.	.
.	.	8A	at	.	.	.	.	.	.
.	.	[16B-	night	.	.	.	.	.	.
.	.	8B-]	_	.	.	.	.	.	.
.	.	16A	un-	.	.	.	.	.	.
.	.	[16B-	-til	.	.	.	.	.	.
.	.	16B-]	_	.	.	.	.	.	.
.	.	8G	you	.	.	.	.	.	.
.	.	[16F	say,	.	.	D	.	.	.
=40	=40	=40	=40	=40	=40	=40	=40	=40	=40
2I	B-:maj	4F]	_	1r	.	.	122.704	.	voice
.	.	16r	.	.	.	.	.	.	.
.	.	8.F#	my	.	.	.	.	.	.
2vi	G:min	16G	ho-	.	.	.	124.227	.	voice
.	.	[8.B-	-ney	.	.	.	.	.	.
.	.	4B-]	_	.	.	.	.	.	.
=41	=41	=41	=41	=41	=41	=41	=41	=41	=41
2II7	C:7	4r	.	1r	.	.	125.75	.	voice
.	.	16B-	All	.	.	.	.	.	.
.	.	8.B-	I	.	.	.	.	.	.
2V7	F:7	16B-	e-	.	.	.	127.273	.	voice
.	.	8B-	-ver	.	.	.	.	.	.
.	.	[16d	need	.	.	.	.	.	.
.	.	8d]	_	.	.	.	.	.	.
.	.	16B-	is	.	.	.	.	.	.
.	.	[16B-	you	.	.	.	.	.	.
=42	=42	=42	=42	=42	=42	=42	=42	=42	=42
*>Letter>A	*>Letter>A	*>Letter>A	*>Letter>A	*>Letter>A	*>Letter>A	*>Letter>A	*>Letter>A	*>Letter>A	*>Letter>A
*>Label>Trans	*>Label>Trans	*>Label>Trans	*>Label>Trans	*>Label>Trans	*>Label>Trans	*>Label>Trans	*>Label>Trans	*>Label>Trans	*>Label>Trans
1I	B-:maj	4B-]	_	1r	.	.	128.796	->newline	guitar
.	.	4r	.	.	.	.	.	.	.
.	.	2r	.	.	.	.	.	.	.
=43	=43	=43	=43	=43	=43	=43	=43	=43	=43
1I	B-:maj	1r	.	1r	.	.	131.964	.	guitar
=44	=44	=44	=44	=44	=44	=44	=44	=44	=44
*>Letter>B	*>Letter>B	*>Letter>B	*>Letter>B	*>Letter>B	*>Letter>B	*>Letter>B	*>Letter>B	*>Letter>B	*>Letter>B
*>Label>Fadeout	*>Label>Fadeout	*>Label>Fadeout	*>Label>Fadeout	*>Label>Fadeout	*>Label>Fadeout	*>Label>Fadeout	*>Label>Fadeout	*>Label>Fadeout	*>Label>Fadeout
1I	B-:maj	1r	.	8r	.	.	135.131	newline	voice
.	.	.	.	8d	Tah	.	.	.	.
.	.	.	.	16d	tah-	.	.	.	.
.	.	.	.	8d	-tah	.	.	.	.
.	.	.	.	[16f	tah-	.	.	.	.
.	.	.	.	8f]	_	.	.	.	.
.	.	.	.	8f	-tah	.	.	.	.
.	.	.	.	16f	tah	.	.	.	.
.	.	.	.	8d	tah	.	.	.	.
.	.	.	.	[16d	tah	.	.	.	.
=45	=45	=45	=45	=45	=45	=45	=45	=45	=45
1III7	D:7	4r	.	4d]	_	.	138.175	.	voice
.	.	8r	.	4r	.	.	.	.	.
.	.	8d	Oh	.	.	.	.	.	.
.	.	16c	ho-	2r	.	.	.	.	.
.	.	8B-	-ney	.	.	.	.	.	.
.	.	16d	ho-	.	.	.	.	.	.
.	.	4c	-ney	.	.	.	.	.	.
=46	=46	=46	=46	=46	=46	=46	=46	=46	=46
1vi	G:min	1r	.	8r	.	.	141.218	.	voice
.	.	.	.	8B-	tah	.	.	.	.
.	.	.	.	16B-	tah	.	.	.	.
.	.	.	.	8c	tah	.	.	.	.
.	.	.	.	[16d	tah	.	.	.	.
.	.	.	.	8d]	_	.	.	.	.
.	.	.	.	8d	tah	.	.	.	.
.	.	.	.	16d	tah	.	.	.	.
.	.	.	.	8B-	tah	.	.	.	.
.	.	.	.	[16A-	tah	.	.	.	.
=47	=47	=47	=47	=47	=47	=47	=47	=47	=47
1Im7	B-:7	4r	.	4A-]	_	.	144.262	.	voice
.	.	4B-	My	4r	.	.	.	.	.
.	.	16d	ho-	2r	.	.	.	.	.
.	.	16c	-ney	.	.	.	.	.	.
.	.	8B-	_	.	.	.	.	.	.
.	.	16d	ho-	.	.	.	.	.	.
.	.	16c	-ney	.	.	.	.	.	.
.	.	8B-	_	.	.	.	.	.	.
=48	=48	=48	=48	=48	=48	=48	=48	=48	=48
1IV	E-:maj	4r	.	1r	.	.	147.306	newline	voice
.	.	16G	sleep	.	.	.	.	.	.
.	.	8A	at	.	.	.	.	.	.
.	.	[16B-	night	.	.	.	.	.	.
.	.	8B-]	_	.	.	.	.	.	.
.	.	16A	un-	.	.	.	.	.	.
.	.	[16B-	-til	.	.	.	.	.	.
.	.	16B-]	_	.	.	.	.	.	.
.	.	8G	you	.	.	.	.	.	.
.	.	[16F	say,	.	.	.	.	.	.
=49	=49	=49	=49	=49	=49	=49	=49	=49	=49
2I	B-:maj	4F]	_	1r	.	.	149.86	.	voice
.	.	16r	.	.	.	.	.	.	.
.	.	8.F#	my	.	.	.	.	.	.
2vi	G:min	16G	ho-	.	.	.	151.138	.	voice
.	.	[8.B-	-ney	.	.	.	.	.	.
.	.	4B-]	_	.	.	.	.	.	.
=50	=50	=50	=50	=50	=50	=50	=50	=50	=50
1II7	C:7	4r	.	1r	.	.	152.415	.	voice
.	.	16d	all	.	.	.	.	.	.
.	.	8.d	I	.	.	.	.	.	.
.	.	16c	e-	.	.	.	.	.	.
.	.	8B-	-ver	.	.	.	.	.	.
.	.	16d	need	.	.	.	.	.	.
.	.	8c	_	.	.	.	.	.	.
.	.	8B-	_	.	.	.	.	.	.
=51	=51	=51	=51	=51	=51	=51	=51	=51	=51
2V7	F:7	4c	you	1r	.	.	154.97	.	voice
.	.	4r	.	.	.	.	.	.	.
4V	F:sus4(b7)	2r	.	.	.	.	156.247	.	voice
4V7	F:7	.	.	.	.	.	156.886	.	voice
1r;	N	r;	.	r;	.	.	157.524	.	r
1r;	N	r;	.	r;	.	.	159.634	.	r
*-	*-	*-	*-	*-	*-	*-	*-	*-	*-
!!!BillboardChartDate: 1971/12/11
!!!BillboardPeak: 7
!!!BillboardWeeksOnChart: 15
!!!COC: Sonny & Cher
!!!ENC: Nathaniel Condit-Schultz
!!!EST: Awating manual error checking and editing.
!!!OTL: All I Ever Need Is You
!!!RDF**harte: Chris Harte's syntax, used by MIREX
!!!RDF**harmony: **recip + pitch class of root + harmonic quality
!!!RDF**leadinstrument: original McGill primary instrumentation annotation
!!!RDF**phrase: newline = linebreak in original McGill transcription
!!!RDF**timestamp: McGill audio timestamp in seconds
!!!RDT: 2017/01/12/
!!!SampleActualRank: 8
!!!SampleID#: 0950
!!!SampleTargetRank: 8
!!!MBID: decfc350-f2b7-406b-8a71-8a6426b7e9cc
